X:1
T:Watchman, Tell Me
T:Watchman, Tell Me
T:William Bradbury, 1863
T:Sidney Smith Brewer, 1857
T:Public Domain Courtesy of the Cyber Hymnal™
T:Public Domain Courtesy of the Cyber Hymnal™
C:William Bradbury, 1863
Z:Public Domain
Z:Courtesy of the Cyber Hymnal™
%%score ( 1 2 ) ( 3 4 )
L:1/8
Q:1/4=95
M:3/4
K:G
V:1 treble 
V:2 treble 
V:3 bass 
V:4 bass 
V:1
 D[DG] | [DB]3 [DG] [DA][DG] | [EG] [CE]3 [CE][CE] | [B,D]3 [B,D] [CE][CF] | [B,G]4 D[DG] | %5
w: 1.~Watch- man,|tell me, does the|morn- ing Of fair|Zi- on’s glo- ry|dawn? Have the|
w: 2.~See the|glor- ious light a-|scend- ing Of the|grand Sab- ba- tic|year, Hark! the|
w: 3.~Pil- grim,|in that gold- en|ci- ty, Seat- ed|in the jas- per|throne, Zi- on’s|
w: 4.~Pil- grim,|see! the light is|beam- ing Bright- er|still up- on thy|way; Signs through|
 [DB]3 [DG] [DA][DG] | [EG] [CE]3 [CE][CE] | [B,D]3 [B,D] [CE][CF] | [B,G]4 G[GB] | %9
w: signs that mark His|com- ing Yet up-|on my path- way|shone? Pil- grim,|
w: voic- es loud pro-|claim- ing The Mes-|si- ah’s king- dom|near; Watch- man,|
w: king, ar- rayed in|beau- ty, Reigns in|peace from zone to|zone; There, on|
w: all the earth are|gleam- ing O- mens|of the com- ing|day, When the|
 [Gd]3 [Gd] [Ge][Fd] | [Gd] [GB]3 G[GB] | [Gd]3 [Gd] [Ge][Fd] | (d2 B2) D[DG] | %13
w: yes, a- rise, look|round thee, Light is|break- ing in the|skies; * Spurn the|
w: yes; I see just|yon- der, Ca- naan’s|glor- ious heights a-|rise; * Sa- lem,|
w: ver- dant hills and|mount- ains, Where the|gold- en sun- beams|play, * Purl- ing|
w: last loud trum- pet|sound- ing, Shall a-|wake from earth to|sea, * All the|
 [DB]3 [DG] [DA][DG] | [EG] [CE]3 [CE][CE] | [B,D]3 [B,D] [CE][CF] | [B,G]4 |] %17
w: un- be- lief that|bound thee, Morn- ing|dawns, a- rise, a-|rise!|
w: too, ap- pears in|grand- eur, Tow- ering|’neath her sun- lit|skies.|
w: streams, and crys- tal|fount- ains, Spark- le|in th’e- ter- nal|day.|
w: saints of God now|sleep- ing, Clad in|im- mor- tal- i-|ty.|
V:2
 D x | x6 | x6 | x6 | x4 D x | x6 | x6 | x6 | x4 G x | x6 | x4 G x | x6 | G4 D x | x6 | x6 | x6 | %16
 x4 |] %17
V:3
 [G,B,][G,B,] | [G,B,]3 [G,B,] [G,C][G,B,] | [C,C] [C,G,]3 [C,G,][C,G,] | %3
 [D,G,]3 [D,G,] [D,G,][D,A,] | [G,,G,]4 [G,B,][G,B,] | [G,B,]3 [G,B,] [G,C][G,B,] | %6
 [C,C] [C,G,]3 [C,G,][C,G,] | [D,G,]3 [D,G,] [D,G,][D,A,] | [G,,G,]4 [G,B,][G,D] | %9
 [G,B,]3 [G,B,] [C,C][D,A,] | [G,B,] [G,D]3 [G,B,][G,D] | [G,B,]3 [G,B,] [C,C][D,A,] | %12
 (B,2 D2) [G,B,][G,B,] | [G,B,]3 [G,B,] [G,C][G,B,] | [C,C] [C,G,]3 [C,G,][C,G,] | %15
 [D,G,]3 [D,G,] [D,G,][D,A,] | [G,,G,]4 |] %17
V:4
 x2 | x6 | x6 | x6 | x6 | x6 | x6 | x6 | x6 | x6 | x6 | x6 | G,4 x2 | x6 | x6 | x6 | x4 |] %17

